static/library/kokonutui-dark.svg

<svg width="32" height="32" viewBox="0 0 32 32" fill="none" xmlns="http://www.w3.org/2000/svg">
<path fill-rule="evenodd" clip-rule="evenodd" d="M12.3648 24.1405C14.6064 28.0604 20.8103 29.697 24.6929 27.4339C27.8845 25.5736 29.3086 21.2027 28.4693 17.5285C28.1096 15.9541 27.1074 14.6134 25.8747 13.5825C25.6863 13.425 25.4956 13.2735 25.3027 13.1283C25.774 13.6388 26.1977 14.213 26.5602 14.8471C28.9673 19.0563 27.7712 24.3031 23.8886 26.5662C20.006 28.8294 14.9072 27.2517 12.5001 23.0425C11.8755 21.9504 11.4935 20.7884 11.3381 19.6268C11.2795 21.2244 11.6024 22.8074 12.3648 24.1405Z" fill="white"/>
<path d="M25.9168 19.2687C25.9168 22.5942 23.2465 25.2901 19.9526 25.2901C16.6586 25.2901 13.9883 22.5942 13.9883 19.2687C13.9883 15.9431 16.6586 13.2472 19.9526 13.2472C23.2465 13.2472 25.9168 15.9431 25.9168 19.2687Z" fill="white"/>
<path d="M10.5093 17.5201C10.4205 16.8417 5.69462 7.16362 10.5094 5.17374C15.3243 3.18386 18.1576 2.81449 18.1576 2.81449C18.1576 2.81449 21.164 2.36224 23.329 0.281899C25.4941 -1.79844 22.3677 8.24902 21.164 10.3294C19.9603 12.4097 17.4636 12.1383 16.037 13.5403C14.6104 14.9423 13.3087 17.5201 13.3087 17.5201C13.3087 17.5201 12.6435 15.4945 12.6435 13.5403C12.6435 11.5861 17.4191 6.16869 17.4191 6.16869C19.5143 4.72151 13.9863 7.71925 12.0247 11.6409C10.4521 14.7848 10.4842 17.1024 10.5129 17.5484C10.5259 17.6546 10.5195 17.6504 10.5129 17.5484C10.5119 17.5397 10.5107 17.5303 10.5093 17.5201Z" fill="#3BB44B"/>
<path d="M10.9942 20.2939C10.5685 20.3508 4.49534 23.3781 3.24664 20.2939C1.99795 17.2096 1.76616 15.3947 1.76616 15.3947C1.76616 15.3947 1.48236 13.4689 0.176898 12.082C-1.12857 10.6952 5.17645 12.6979 6.48191 13.4689C7.78736 14.24 7.61708 15.8393 8.49684 16.7531C9.37661 17.6669 10.9942 18.5007 10.9942 18.5007C10.9942 18.5007 9.72314 18.9269 8.49684 18.9269C7.27054 18.9269 3.871 15.8677 3.871 15.8677C2.96285 14.5256 4.84401 18.0667 7.30491 19.3232C9.27778 20.3306 10.7321 20.31 11.012 20.2916C11.0786 20.2833 11.076 20.2874 11.012 20.2916C11.0066 20.2923 11.0006 20.2931 10.9942 20.2939Z" fill="#3BB44B"/>
</svg>

<svg xmlns="http://www.w3.org/2000/svg" width="32" height="32" fill="none"><path fill="#fff" fill-rule="evenodd" d="M12.365 24.14c2.241 3.92 8.445 5.557 12.328 3.294 3.191-1.86 4.616-6.231 3.776-9.905-.36-1.575-1.362-2.916-2.594-3.947-.189-.157-.38-.309-.572-.454.471.51.895 1.085 1.257 1.72 2.407 4.208 1.211 9.455-2.671 11.718-3.883 2.263-8.982.686-11.389-3.523a9.384 9.384 0 0 1-1.162-3.416c-.058 1.597.264 3.18 1.027 4.514Z" clip-rule="evenodd"/><path fill="#fff" d="M25.917 19.269c0 3.325-2.67 6.021-5.964 6.021-3.294 0-5.965-2.696-5.965-6.021 0-3.326 2.67-6.022 5.965-6.022 3.294 0 5.964 2.696 5.964 6.022Z"/><path fill="#3BB44B" d="M10.51 17.52c-.09-.678-4.815-10.356 0-12.346 4.814-1.99 7.648-2.36 7.648-2.36s3.006-.452 5.171-2.532c2.165-2.08-.961 7.967-2.165 10.047-1.204 2.08-3.7 1.81-5.127 3.211-1.427 1.402-2.728 3.98-2.728 3.98s-.665-2.025-.665-3.98c0-1.954 4.775-7.371 4.775-7.371 2.095-1.447-3.433 1.55-5.394 5.472-1.573 3.144-1.54 5.461-1.512 5.907.013.107.007.102 0 0a1.305 1.305 0 0 0-.004-.028ZM10.994 20.294c-.425.057-6.499 3.084-7.747 0-1.249-3.084-1.48-4.9-1.48-4.9s-.285-1.925-1.59-3.312c-1.306-1.387 5 .616 6.305 1.387 1.305.771 1.135 2.37 2.015 3.284.88.914 2.497 1.748 2.497 1.748s-1.27.426-2.497.426c-1.226 0-4.626-3.06-4.626-3.06-.908-1.341.973 2.2 3.434 3.456 1.973 1.008 3.427.987 3.707.969.067-.009.064-.005 0 0l-.018.002Z"/></svg>
